!!!SOCIAL_FUNCTION:	songs connected with stories
!!!PDT:	1943
!!!OTL: No_75_The_Little_Boy_and_the_Whale.krn
!!!REG: British Columbia
**kern	**kern
*staff2	*staff1
=1-	=1-
*clefF4	*clefF4
*k[b-]	*k[b-]
*M2/4	*M2/4
4GG/	4F\
4GG/	8.G\L
.	16A\Jk
=2	=2
4GG/	8A\L
.	8A\J
4GG/	8A\L
.	8A\J
=3||	=3||
*M3/4	*M3/4
4GG/	4A\
4GG/	2G\
4r	.
=4	=4
2.r	8G\L
.	8F\J
.	8F\L
.	8G\J
.	8G\L
.	8A\J
=5||	=5||
*M2/4	*M2/4
2r	8A\L
.	8G\J
.	4G\
=6||	=6||
*M3/4	*M3/4
2.r	8G\L
.	8F\J
.	8F\L
.	8G\J
.	8r
.	8F\
=7||	=7||
*M2/4	*M2/4
2r	4F\
.	8G\L
.	8F\J
=8	=8
2r	[2F\
=9	=9
2r	4F\]
.	4r
=10	=10
=	=
2r	4F\
.	4G\
=11	=11
2r	4F\
.	4G\
=12||	=12||
*M3/4	*M3/4
2.r	4A\
.	[2G\
=13||	=13||
*M2/4	*M2/4
2r	8G\L]
.	8F\J
.	8F\
.	16r
.	16F\
=14	=14
2r	4F\
.	4G\
=15	=15
2r	8.A\L
.	16G\Jk
.	4G\
=16	=16
2r	4A\
.	8G\L
.	8F\J
=17	=17
2r	[2G\
=18	=18
2r	8G\L]
.	8F\J
.	8F\
.	8r
=19	=19
2r	4F\
.	4G\
=20	=20
2r	2G;\
=21	=21
2r	8.F\L
.	16F\Jk
.	4F\
=22||	=22||
*M3/4	*M3/4
2.r	4F\
.	8F\L
.	8F\J
.	8F\
.	8r
=23||	=23||
*M2/4	*M2/4
2r	4F\
.	4G\
=24||	=24||
*M3/4	*M3/4
2.r	4A\
.	[2G\
=25||	=25||
*M2/4	*M2/4
2r	8G\L]
.	8F\J
.	8F\
.	8r
=26	=26
2r	4F\
.	8.G\L
.	16A\Jk
=27	=27
2r	8A\L
.	8A\J
.	4Bn\
=28||	=28||
*M3/4	*M3/4
2.r	8A\L
.	8G\J
.	8A\L
.	8G\J
.	4G\
=29	=29
2.r	4G\
.	8F\L
.	8G\J
.	4G\
=30||	=30||
*M2/4	*M2/4
2r	4F\
.	4F\
=31	=31
2r	8F\L
.	8F\J
.	[4F\
=32	=32
2r	4F\]
.	4r
=33	=33
2r	4F\
.	4G\
=34||	=34||
*M3/4	*M3/4
2.r	4A\
.	2G\
=35||	=35||
*M2/4	*M2/4
2r	8G\L
.	8F\J
.	8F\
.	16r
.	16F\
=36	=36
2r	4F\
.	4G\
=37	=37
2r	8.A\L
.	16G\Jk
.	4G\
=38	=38
2r	8.A\L
.	16G\Jk
.	4G\
=39	=39
2r	4A\
.	8G\L
.	8F\J
=40	=40
2r	[2G\
=41	=41
2r	8G\L]
.	8F\J
.	8F\
.	8r
=42	=42
2r	4F\
.	4G\
=43	=43
2r	2G;\
=44	=44
2r	8.F\L
.	16F\Jk
.	4F\
=45||	=45||
*M3/4	*M3/4
2.r	4F\
.	8F\L
.	8F\J
.	8F\
.	8r
=46||	=46||
*M2/4	*M2/4
2r	4F\
.	4G\
=47||	=47||
*M3/4	*M3/4
2.r	4A\
.	[2G\
=48||	=48||
*M2/4	*M2/4
2r	4G\]
.	8F\
.	8r
=49	=49
2r	4F\
.	8.G\L
.	16A\Jk
=50	=50
2r	8A\L
.	8A\J
.	8A\L
.	8A\J
=51||	=51||
*M3/4	*M3/4
2.r	4A\
.	2G\
=52||	=52||
*M2/4	*M2/4
2r	8F\L
.	8G\J
.	8G\L
.	8A\J
=53	=53
2r	8A\L
.	8G\J
.	4G\
=54	=54
2r	8G\L
.	8F\J
.	8F\L
.	8G\J
=55||	=55||
*M3/4	*M3/4
2.r	8F\L
.	8F\J
.	8F\
.	8r
.	8G\L
.	8F\J
=56||	=56||
*M2/4	*M2/4
2r	2F\
=57	=57
2r	4F\
.	4r
==:|!	==:|!
*-	*-
